X:1
T:Fantasia and Fugue in A minor
T:BWV 944
T:J. S. Bach
%%score { ( 1 3 ) | ( 2 4 ) }
L:1/8
Q:1/4=80
M:4/4
K:C
V:1 treble nm="ハープシーコード" snm="Hch."
V:3 treble 
V:2 bass 
V:4 bass 
V:1
"^Fantasia" z E/4A/4c/4e/4 e/4c/4A/4E/4 z z E/4A/4c/4e/4 e/4c/4A/4E/4 z | %1
 z D/4^E/4B/4d/4 d/4B/4E/4D/4 z z =E/4^G/4B/4d/4 d/4B/4G/4E/4 z | %2
 z ^E/4^G/4B/4d/4 d/4B/4G/4E/4 z z =E/4G/4A/4c/4 c/4A/4G/4E/4 z | %3
 z D/4^E/4A/4c/4 c/4A/4E/4D/4 z z D/4E/4^G/4B/4 B/4G/4E/4D/4 z | %4
 z D/4^E/4^G/4B/4 B/4G/4E/4D/4 z z A,/4C/4=E/4A/4 A/4E/4C/4A,/4 z | %5
 z G/4^A/4e/4g/4 g/4e/4A/4G/4 z z =A/4^c/4e/4g/4 g/4e/4c/4A/4 z | %6
 z G/4^A/4^c/4e/4 g/4e/4c/4A/4 z z D/4=A/4d/4^e/4 e/4d/4A/4D/4 z | %7
 z ^G/4B/4d/4^e/4 e/4d/4B/4G/4 z z G/4A/4c/4=e/4 e/4c/4A/4G/4 z | %8
 z A/4A/4c/4e/4 e/4c/4A/4^G/4 z z ^F/4A/4B/4^d/4 d/4B/4A/4F/4 z | z E/^G/ B/!fermata!e/-e- e4 | %10
 z8 |[M:3/4]"^Fuga"[Q:1/4=128] A/c/B/A/ e/B/c/d/ E/d/c/B/ | c/d/c/B/ A/e/f/g/ a/g/f/e/ | %13
 f/e/d/e/ f/e/d/c/ B/d/c/B/ | e/d/c/d/ e/d/c/B/ A/c/B/A/ | d/c/B/c/ d/c/B/A/ ^G/B/A/G/ | %16
 A/E/A/c/ e/A/c/e/ a/g/a/^f/ | g/e/^f/g/ M^d3 d | e2 z b gb | ac' ^fc' dc' | gb eb cb | %21
 ^fa ^da Ba | g2 z2 g2- | g/e/f/g/ Ag ^cg | f2 z2 f2- | f/d/e/f/ Gf Bf | %26
 e/f/e/d/ c/B/A/G/ ^F/A/B/c/ | d/e/d/c/ B/A/^G/^F/ E/G/A/B/ | c2 B3 B | A2 z2 z c' | c'2 z2 z b | %31
 b2 z2 z a | a2 z f ed | c4 z c | B4 z _B | A4 d2- | d/E/^G/B/ e/B/e/^g/ b/f/e/d/ | c2 c2 z2 | %38
 z2 c2 z2 | z2 c2 z2 | z/ c/B/A/ f/e/d/c/ B/d/c/B/ | e2 z2 z/ d/c/B/ | c2 z/ c/B/A/ ^G2 | %43
 A2 z2 z2 | z6 | z6 | z6 | z6 | z6 | z6 | z6 | z6 | z6 | z6 | z6 | z6 | z6 | z6 | z6 | z6 | z6 | %61
 z6 | z6 | z6 | E/G/^F/E/ B/F/G/A/ B,/A/G/F/ | G/A/G/^F/ E/B/c/d/ e/d/c/B/ | %66
 c/B/A/B/ c/B/A/G/ ^F/A/G/F/ | B/A/G/A/ B/A/G/^F/ E/G/F/E/ | A/G/^F/G/ A/G/F/E/ ^D/F/E/D/ | %69
 E/B,/E/G/ B/E/G/B/ e/d/e/^c/ | d6- | d6- | d2 c2- c/_B/.c | _e6- | e2 d2- d/c/d/=B/ | f6- | %76
 f2 _e2- e/d/e/^c/ | g6- | g2 f2- f/e/f | _b2- b/a/g/f/ e/g/f/e/ | f2- f/e/d/c/ B/d/c/B/ | %81
 ^c2- c/d/c/d/ e2- | e d2 d- d^c | d2 z2 z f | f2 z2 z e | e2 z2 z d | d2 z _B AG | F2 F2 z A | %88
 d2 d2 z d | P^cd e4- | eA d3 ^c | d2 z2 f2- | f/d/e/f/ Gf _Bf | e2 z2 _e2- | e/c/d/_e/ Fe Ae | %95
 d/_e/d/c/ _B z z2 | e/f/e/d/ ^c z z2 | a/f/e/d/ g/e/f/g/ A/g/f/e/ | f/g/f/e/ d2- d/d/e/f/ | %99
 g/e/d/c/ f/d/e/f/ G/f/e/d/ | e/f/e/d/ c2- c/c/d/e/ | f/d/c/B/ e/c/d/e/ A/e/d/c/ | B/c/B/A/ G2 z2 | %103
 c4 B2 | c2 z2 e2 | e2 d2 z2 | d2 c2 z2 | A2 G4- | G2 z4 | z/ C/F/A/ c/F/A/c/ f/e/f/c/ | d2 z2 z2 | %111
 z/ D/G/B/ d/G/B/d/ g/f/g/d/ | e2 e2 z2 | e2 e2 z2 | e2 e2 z2 | z/ e/d/c/ a/g/f/e/ d/f/e/d/ | %116
 g2 z2 z/ f/e/d/ | e2 z/ e/d/c/ B2 | z c2 c- c/B/c/B/ | c6 | _B2 A4- | A/c/B/A/ d/B/c/d/ E/d/c/B/ | %122
 c2 B4- | B/d/^c/B/ e/c/d/e/ ^F/e/^d/c/ | ^d6 | e/g/^f/e/ a4- | a g2 g- g/g/^f/e/ | %127
 ^d/^f/d/e/ f/d/e/f/ A/c/B/A/ | G/B/G/A/ B/G/A/B/ E/G/^F/E/ | ^D/^F/D/E/ F/D/E/F/ z2 | z6 | z6 | %132
 z6 | z6 | z6 | z6 | z6 | z6 | z6 | z6 | z6 | z6 | z6 | z6 | z6 | z6 | z6 | z6 | %148
 A/c/B/A/ e/B/c/d/ E/d/c/B/ | c/d/c/B/ A/e/f/g/ a/g/f/e/ | f/e/d/e/ f/e/d/c/ B/d/c/B/ | %151
 e/d/c/d/ e/d/c/B/ A/c/B/A/ | d/c/B/c/ d/c/B/A/ ^G/B/A/G/ | %153
 A/[I:staff +1]E,/A,/[I:staff -1]C/ E/[I:staff +1]A,/[I:staff -1]C/E/ A/G/A/^F/ | G6- | G6- | %156
 G2 F2- F/_E/.F | _A6- | A2 G2- G/F/.G | _B6- | B2 _A2- A/G/=A/^F/ | c6- | c2 _B2- B/A/B/G/ | %163
 _e2- e/d/c/_B/ A/c/B/A/ | _B2- B/A/G/F/ E/G/^F/E/ | ^F2- F/G/F/G/ A2- | A G2 G- G^F | G6 | %168
 F2 E4- | E/G/^F/E/ A/F/G/A/ B,/A/G/F/ | G2 ^F4- | F/A/^G/^F/ B/G/A/B/ ^C/B/A/G/ | A2 ^A2 z2 | %173
 B/d/^c/B/ e/c/d/e/ ^F/e/d/c/ | d2 _e2 z2 | e/g/^f/e/ a/f/g/a/ B/a/g/f/ | g2 ^g2 z2 | %177
 a/c/B/A/ d/B/c/d/ E/d/c/B/ | c4- c/c/B/A/ | ^G6 | A/c/B/A/ d4- | dc- cc- c/c/B/A/ | %182
 ^G/B/G/A/ B/G/A/B/ D/F/E/D/ | C/E/C/D/ E/C/D/E/ A,/C/B,/A,/ | %184
[I:staff +1] ^G,/B,/G,/A,/ B,/G,/A,/B,/[I:staff -1] z2 | z6 | z6 | A/c/B/A/ e/c/d/e/ A/g/f/e/ | %188
 f/e/d/e/ f/e/d/c/ B/c/d/c/ | B/A/^G/A/ B/A/G/F/ E/D/C/B,/ | %190
[I:staff +1] C/B,/A,/B,/ C/B,/A,/G,/ ^F,/G,/A,/G,/ | %191
 ^F,/E,/^D,/E,/ F,/E,/D,/^C,/ B,,/A,,/^G,,/^F,,/ | %192
 E,,/B,,/^G,,/A,,/ B,,/G,,/A,,/B,,/ E,,/D,/C,/B,,/ | C,/E,/C,/D,/ E,/C,/D,/E,/ A,,/G,/^F,/E,/ | %194
[I:staff -1] z/[I:staff +1] A,/^F,/G,/ A,/F,/G,/A,/ ^D,/C/B,/A,/ | %195
 ^G,/B,/G,/A,/ B,/G,/A,/B,/ E,/D/C/B,/ |[I:staff -1] C/E/C/D/ E/C/D/E/ A,/G/^F/E/ | %197
 ^D/A/^F/G/ A/F/G/A/ D/c/B/A/ | ^G/B/G/A/ B/G/A/B/ E/d/c/B/ | c/e/c/d/ e/c/d/e/ A/g/^f/e/ | %200
 ^d/a/^f/g/ a/f/g/a/ d/c'/b/a/ | ^g/ z/ z z2 z2 | z/ g/f/e/ a/e/f/g/ A/g/f/e/ | %203
 f/e/d/e/ f/e/d/c/ B/d/c/B/ | e/d/c/d/ e/d/c/B/ A/c/B/A/ | d/c/B/c/ d/c/B/A/ ^G/B/A/G/ | %206
 c/ z/ z z2 z2 | z A A2- M^G>A | A2 z2 z2 |] %209
V:2
 A,,/4C,/4E,/4A,/4 z z A,/4E,/4C,/4A,,/4 A,,/4C,/4E,/4A,/4 z z A,/4E,/4C,/4A,,/4 | %1
 A,,/4B,,/4D,/4^E,/4 z z E,/4D,/4B,,/4A,,/4 ^G,,/4B,,/4D,/4=E,/4 z z E,/4D,/4B,,/4G,,/4 | %2
 A,,/4D,/4E,/4A,/4 z z A,/4E,/4D,/4A,,/4 A,,/4C,/4E,/4A,/4 z z A,/4E,/4C,/4A,,/4 | %3
 B,,/4D,/4A,/4D/4 z z D/4A,/4D,/4B,,/4 B,,/4D,/4^G,/4D/4 z z D/4G,/4D,/4B,,/4 | %4
 C,/4D,/4^G,/4D/4 z z D/4G,/4D,/4C,/4 C,/4E,/4A,/4C/4 z z C/4A,/4E,/4C,/4 | %5
 ^C,/4E,/4G,/4^A,/4 z z A,/4G,/4E,/4C,/4 C,/4E,/4=A,/4G/4 z z G/4A,/4E,/4C,/4 | %6
 D,/4E,/4G,/4^C/4 z z G/4C/4G,/4E,/4 D,/4^E,/4A,/4D/4 z z D/4A,/4E,/4D,/4 | %7
 E,/4^G,/4B,/4^G/4 z z G/4B,/4G,/4E,/4 E,/4G,/4C/4G/4 z z G/4C/4G,/4E,/4 | %8
 ^E,/4A,/4C/4E/4 z z E/4C/4A,/4E,/4 ^F,/4A,/4B,/4^F/4 z z F/4B,/4A,/4F,/4 | %9
 E,/^G,/!fermata!B,- B,2- B,4 | z8 |[M:3/4] z6 | z6 | z6 | z6 | z6 | z6 | z6 | z6 | z6 | z6 | z6 | %22
 z6 | z6 | z6 | z6 | z6 | z6 | A,/C/B,/A,/ E/B,/C/D/ E,/D/C/B,/ | C/D/C/B,/ A,/E/F/G/ A/G/F/E/ | %30
 F/E/D/E/ F/E/D/C/ B,/D/C/B,/ | E/D/C/D/ E/D/C/B,/ A,/C/B,/A,/ | %32
 D/C/B,/C/ D/C/B,/A,/ ^G,/B,/A,/G,/ | A,/E,/A,/C/ E/A,/C/E/ A/G/A/^F/ | %34
 G/D,/G,/B,/ D/G,/B,/D/ G/F/G/E/ | F/F,/A,/C/ F/E/D/C/ B,/C/B,/A,/ | ^G,2 z2 G,2 | %37
 A,2- A,/^G,/A,/B,/ C/D/E/F/ | F,2- F,/E,/F,/G,/ A,/B,/C/D/ | C,2- C,/B,,/A,,/B,,/ C,/D,/E,/F,/ | %40
 D,,D, A,,D, F,,D, | D,,D, C,/C/B,/A,/ ^G,E, | A,/F,/E,/D,/ C,D, E,E,, | %43
 A,,/C,/B,,/A,,/ E,/B,,/C,/D,/ E,,/D,/C,/B,,/ | C,2- C,/D,/E,/F,/ ^G,,>G,, | A,,2 z E, C,E, | %46
 D,F, B,,F, G,,F, | C,E, A,,E, F,,E, | B,,D, ^G,,D, E,,D, | C,2 z2 C,2- | %50
 C,/A,,/B,,/C,/ D,,C, ^F,,C, | B,,2 z2 B,,2- | B,,/G,,/A,,/B,,/ C,,B,, E,,B,, | %53
 A,,/B,,/C,/B,,/ A,,/G,,/^F,,/E,,/ ^D,,^D, | E,/G,/^F,/E,/ B,/F,/G,/A,/ B,,/A,/G,/F,/ | %55
 G,/A,/G,/^F,/ E,/B,/^C/^D/ E/=D/=C/B,/ | C/B,/A,/B,/ C/B,/A,/G,/ ^F,/A,/G,/F,/ | %57
 B,/A,/G,/A,/ B,/A,/G,/^F,/ E,/G,/F,/E,/ | A,/G,/^F,/G,/ A,/G,/F,/E,/ ^D,/F,/E,/D,/ | %59
 E,/B,,/E,/G,/ B,/E,/G,/B,/ z/ D/C/B,/ | A,2 z/ A,/E,/C,/ A,,/C,/E,/A,/ | B,,A, ^F,A, ^D,A, | %62
 G,/A,/B,/A,/ G,/^F,/E,/D,/ C,/B,,/A,,/G,,/ | A,,/B,,/C,/B,,/ A,,/G,,/^F,,/E,,/ B,,/C,/B,,/A,,/ | %64
 G,,A,, B,,3 B,, | E,,2 z2 G,2- | G,2 z2 ^F,2- | F,2 z2 E,2- | E,2 z C, B,,A,, | %69
 G,,^F,, E,,F,, G,,E,, | B,,3 ^C, D,B,, | E,/B,,/E,/^G,/ B,/E,/G,/B,/ E/D/E/B,/ | %72
 C2- C/B,/C/A,/ F2 | z/ C,/F,/A,/ C/F,/A,/C/ F/_E/F/C/ | D2- D/C/D/_B,/ G2 | %75
 z/ D,/G,/B,/ D/G,/B,/D/ G/F/G/D/ | _E2- E/D/E/C/ A2 | z/ E,/A,/^C/ E/A,/C/E/[K:treble] A/G/A/E/ | %78
 F2- F/E/F/D/ _B/c/B/A/ | G/A/_B/A/ G/F/E/D/ ^C/E/D/C/ | %80
 D/E/F/E/[K:bass] D/C/B,/A,/ ^G,/B,/A,/G,/ | A,/G,/_B,/A,/ G,/F,/E,/D,/ ^C,/E,/D,/C,/ | %82
 D,/F,/E,/D,/ A,/E,/F,/G,/ A,,/G,/F,/E,/ | F,/G,/F,/E,/ D,/A,/B,/^C/ D/=C/_B,/A,/ | %84
 _B,/A,/G,/A,/ B,/A,/G,/F,/ E,/G,/F,/E,/ | A,/G,/F,/G,/ A,/G,/F,/E,/ D,/F,/E,/D,/ | %86
 G,/F,/E,/F,/ G,/F,/E,/D,/ ^C,/E,/D,/C,/ | D,/A,,/D,/F,/ A,/D,/F,/A,/ D/C/D/A,/ | %88
 _B,/F,,/_B,,/D,/ F,/B,,/D,/F,/ B,/A,/B,/F,/ | G,/A,/_B,/A,/ G,/F,/E,/D,/ ^C,/E,/D,/C,/ | %90
 D,/E,/D,/C,/ _B,,/A,,/B,,/G,,/ A,,/A,/G,/A,/ | D,/A,,/D,/F,/ A,/D,/F,/A,/ D/C/D/A,/ | %92
 _B,2 z/ C/B,/A,/ G,/F,/E,/D,/ | C,/G,,/C,/E,/ G,/C,/E,/G,/ C/_B,/C/G,/ | %94
 A,2 z/ _B,/A,/G,/ F,/_E,/D,/C,/ | _B,,2 z2 z2 | A,2 z2 z2 | F,2 E,2 A,2 | D,2 z2 z/ A,/G,/F,/ | %99
 E,2 D,2 G,2 | C,2 z2 z/ G,/F,/E,/ | A,2 G,2 F,2 | G,2- G,/A,/G,/F,/ E,/D,/C,/B,,/ | %103
 E,F, G,F, G,G,, | C,D, E,D, E,/C,/D,/E,/ | F,A, D,A, B,,A, | E,G, C,G, A,,G, | D,F, B,,F, G,,F, | %108
 E,D, C,D, E,C, | F,G, A,_B, A,G, | ^F,E, D,E, F,D, | G,A, B,A, B,G, | C2- C/B,/C/D/ E/F/G/A/ | %113
 A,2- A,/G,/A,/B,/ C/D/E/F/ | E,2- E,/D,/C,/D,/ E,/F,/G,/A,/ | F,,F, C,F, A,,F, | %116
 F,,F, E,/E/D/C/ B,G, | C/A,/G,/F,/ E,F, G,G,, | C,/E,/D,/C,/ G,/D,/E,/F,/ G,,/F,/E,/D,/ | %119
 C,2 ^F,2 z2 | G,2 ^C,2 z2 | D,2 ^G,2 z2 | A,2 ^D,2 z2 | E,2 ^A,2 z2 | %124
 B,/^D/^C/B,/ ^F/D/E/F/ A,/=C/B,/A,/ | G,/B,/A,/G,/ ^D/A,/B,/C/ ^F,/A,/G,/F,/ | %126
 E,/G,/^F,/E,/ ^A,/E,/F,/G,/ ^C,/E,/^D,/C,/ | B,,6- | B,,6- | B,,6- | B,,6- | %131
 B,,4 A,,/C,/B,,/A,,/ | G,,2- G,,/A,,/B,,/C,/ ^D,,/^F,,/B,,/D,,/ | E,,2 z2 z/ E,/^F,/G,/ | %134
 A,A,, z/ A,,/B,,/C,/ D,/C,/B,,/A,,/ | G,,2 z/ G,,/A,,/B,,/ C,/B,,/A,,/G,,/ | %136
 ^F,,2 z/ F,,/G,,/A,,/ B,,/A,,/G,,/F,,/ | G,,2 z/ A,,/G,,/^F,,/ E,,/F,,/G,,/E,,/ | %138
 A,,/^G,,/A,,/B,,/ C,/D,/C,/B,,/ A,,/B,,/^C,/A,,/ | D,/^C,/D,/E,/ F,/G,/F,/E,/ D,/E,/F,/D,/ | %140
 E,/B,,/E,/^G,/ B,/E,/G,/B,/ E/D/E/B,/ | ^C2 z/ D/C/B,/ A,/G,/^F,/E,/ | %142
 D,/A,,/D,/^F,/ A,/D,/F,/A,/ D/C/D/A,/ | B,2 z/ C/B,/A,/ G,/F,/E,/D,/ | %144
 C,2 z/ B,/A,/G,/ ^F,/E,/D,/C,/ | B,,2 z/ A,/^G,/F,/ E,/D,/C,/B,,/ | %146
 A,,/C,/B,,/A,,/ E,/B,,/C,/D,/ E,,/D,/C,/B,,/ | C,D, E,^F, ^G,E, | A,4 ^G,2 | A,2 z2 z2 | z6 | z6 | %152
 z6 | z6 | z2 z E, G,E, | A,/E,,/A,,/^C,/ E,/A,,/C,/E,/ A,/G,/A,/E,/ | F,2- F,/E,/F,/D,/ _B,2 | %157
 z/ F,,/_B,,/D,/ F,/B,,/D,/F,/ _B,/_A,/B,/F,/ | G,2- G,/F,/G,/_E,/ C2 | %159
 z/ G,,/C,/E,/ G,/C,/E,/G,/ C/_B,/C/G,/ | _A,2- A,/G,/^G,/F,/ D2 | %161
 z/ A,,/D,/^F,/ A,/D,/F,/A,/ D/C/D/A,/ | _B,2- B,/A,/B,/G,/ _E/F/E/D/ | %163
 C/D/_E/D/ C/_B,/A,/G,/ ^F,/A,/G,/F,/ | G,/A,/_B,/A,/ G,/F,/E,/D,/ ^C,/E,/D,/=C,/ | %165
 D,/C,/_E,/D,/ C,/_B,,/A,,/G,,/ ^F,,/A,,/G,,/F,,/ | %166
 G,,/_B,,/A,,/G,,/ D,/A,,/B,,/C,/ D,,/C,/B,,/A,,/ | G,,2 ^C,2 z2 | D,2 ^G,,2 z2 | A,,2 _E,2 z2 | %170
 E,2 ^A,,2 z2 | B,,2 ^E,2 z2 | ^F,2 E,2 z2 | D,2 ^C,2 z2 | B,,2 A,2 z2 | G,2 ^F,2 z2 | E,2 D2 z2 | %177
 C2 B,2 z2 | A,/C/B,/A,/ ^D/A,/B,/C/ ^F,/A,/^G,/F,/ | E,/^G,/^F,/E,/ B,/G,/A,/B,/ D,/=F,/E,/D,/ | %180
 C,/E,/D,/C,/ ^G,/D,/E,/F,/ B,,/D,/C,/B,,/ | A,,/C,/B,,/A,,/ ^D,/A,,/B,,/C,/ ^F,,/A,,/^G,,/F,,/ | %182
 E,,6- | E,,6- | E,,6- | E,,6- | E,,4 D,,/F,,/E,,/D,,/ | C,,2 C,2 z2 | D,2 z2 z2 | ^G,,2 z2 z2 | %190
 A,,2 z2 z2 | ^D,,2 z2 z2 | E,,2 z2 z2 | E,,2 z2 z2 | E,,2 z2 z2 | E,,2 z2 z2 | E,,2 z2 z2 | %197
 E,,2 z2 z2 | E,,2 z2 z2 | E,,2 z2 z2 | E,,2 z2 z2 | %201
 z/ E,,/^G,,/B,,/ D,/F,/^G,/B,/[I:staff -1] D/F/^G/B/ |[I:staff +1] ^C,2 z2 z/ A,/B,/^C/ | %203
 D/E/F/E/ D/C/B,/A,/ ^G,/B,/E,/G,/ | C,/D,/E,/D,/ C,/B,,/A,,/B,,/ C,/D,/E,/F,/ | %205
 ^G,,D, B,,D, E,,D, | z/ A,,/C,/E,/ A,/[I:staff -1]C/^D/^F/ A/c/^d/^f/ |[I:staff +1] z2 E,4- | %208
 E,2 z2 z2 |] %209
V:3
 x8 | x8 | x8 | x8 | x8 | x8 | x8 | x8 | x8 | x8 | x8 |[M:3/4] x6 | x6 | x6 | x6 | x6 | x6 | %17
 E/G/^F/E/ B/F/G/A/ B,/A/G/F/ | G/A/G/^F/ E/B/c/d/ e/d/c/B/ | c/B/A/B/ c/B/A/G/ ^F/A/G/F/ | %20
 B/A/G/A/ B/A/G/^F/ E/G/F/E/ | A/G/^F/G/ A/G/F/E/ ^D/F/E/D/ | E/B,/E/G/ B/E/G/B/ e/d/e/B/ | %23
 ^c2 A/d/c/B/ A/G/F/E/ | D/A,/D/F/ A/D/F/A/ d/c/d/A/ | B2 z/ ^c/B/A/ G/F/E/D/ | C2 z2 z/ E/D/C/ | %27
 B,2 z2 z/ D/C/B,/ | A,A- AA ^G2 | A2 z e ce | df Bf Gf | ce Ae Fe | Bd ^Gd EB- | B2 A2 z A- | %34
 A2 G2 z G- | G2 F4 | B,2 z2 E2- | E/B/A/^G/ A2 z2 | z/ B/A/^G/ A2 z2 | z/ B/A/^G/ A2 z2 | z6 | %41
 z/ ^G/^F/E/ A/B/c/d/ E2- | E2 z2 z/ F/E/D/ | C2- C/D/E/F/ ^G,>G, | %44
[I:staff +1] A,/C/B,/A,/ E/B,/C/D/ E,/D/C/B,/ | C/D/C/B,/ A,/[I:staff -1]E/F/G/ A/G/F/E/ | %46
 F/E/D/E/ F/E/D/C/ B,/D/C/B,/ | E/D/C/D/ E/D/C/B,/ A,/C/B,/A,/ | %48
 D/C/B,/C/ D/C/B,/[I:staff +1]A,/ ^G,/B,/A,/G,/ | A,/E,/A,/C/[I:staff -1] E/A,/C/E/ A/G/A/E/ | %50
 ^F2 z/ G/F/E/ D/C/B,/A,/ |[I:staff +1] G,/D,/G,/B,/ D/G,/B,/D/[I:staff -1] G/^F/G/^D/ | %52
 E2 z/ ^F/E/D/[I:staff +1] C/B,/A,/G,/ | %53
 ^F,>[I:staff -1]E ^D/E/D/E/[I:staff +1] A,/[I:staff -1]C/B,/[I:staff +1]A,/ | %54
[I:staff -1] G/^D/E/^F/ MD3 D | E2 z/ A/G/^F/ G/B/A/G/ | A/B/c/B/ A/G/^F/E/ D/c/B/A/ | %57
 G/A/B/A/ G/^F/E/D/ C/B/A/G/ | ^F/G/A/G/ F/E/^D/^C/ B,/A/G/F/ | G2 z/ e/B/G/ E/G/A/B/ | %60
 c/E/A/c/ e/A/c/e/ a/g/^f/e/ | ^d/e/^f/e/ d/^c/B/A/ G/^F/E/^D/ | %62
 E/^F/G/F/ E/D/C/B,/[I:staff +1] A,/G,/^F,/E,/ | C/B,/A,/G,/ ^F,/G,/A,/B,/ ^D,>D, | E,3 E, ^D,2 | %65
 E,2[I:staff -1] z[I:staff +1] B,G,B, | A,C ^F,C D,C | G,B, E,B, C,B, | ^F,A, ^D,A, B,,F, | %69
 G,2[I:staff -1] z2 z2 | z/[I:staff +1] ^F,/B,/[I:staff -1]D/ ^F/B,/D/F/ B/A/B/F/ | ^G6- | %72
 G/^F/^G/E/ A2- A>A- | A6- | A/G/A/F/ _B2- B>=B- | B6- | B/A/B/G/ c2- c>^c- | c6- | %78
 c/B/^c/A/ d2- d>d- | dg ^c2 z2 | z d ^G2 z2 | z/ A/G/F/ E2- E/G/F/E/ | F2 E2 E2 | D2 z A FA | %84
 G_B EB CB | FA DA _B,A | EG ^CG A,E | E2 D2 z F | F2 F2 z F | _B3 B PAG | F3 _B EA | F2 z2 z2 | %92
 z2 z2 _B2- | B2 z2 z2 | z4 A2- | A2 z/ A/G/F/ E/D/^C/B,/ | ^C2 z/ B/A/G/ F/E/D/C/ | %97
[I:staff +1] DD- D D2 ^C |[I:staff -1] z[I:staff +1] D- D/E/D/C/ B,[I:staff -1] z | %99
 z[I:staff +1] C- CC- CB, |[I:staff -1] z[I:staff +1] C- C/D/C/B,/ A,[I:staff -1] z | %101
 z[I:staff +1] C- CC- C[I:staff -1] F- | F2- F/F/E/D/ C/B,/[I:staff +1]A,/G,/ | %103
[I:staff -1] C/E/D/C/ G/D/E/F/ z/ F/E/D/ | E/F/E/D/ C/G/A/_B/ c/B/A/G/ | %105
 A/G/F/G/ A/G/F/E/ D/F/E/D/ | G/F/E/F/ G/F/E/D/ C/E/D/C/ | F/E/D/E/ F/E/D/C/ B,/D/C/B,/ | %108
 C/G,/C/E/ G/C/E/G/ c/_B/c/G/ | A2 z2 z2 | z/[I:staff +1] A,/[I:staff -1]D/^F/ A/D/F/A/ d/c/d/A/ | %111
 B2 z2 z2 | z/ d/c/B/ c2 z2 | z/ d/c/B/ c2 z2 | z/ d/c/B/ c2 z2 | z6 | z/ B/A/G/ c/d/e/f/ G2- | %117
 G2 z2 z/ A/G/F/ | E2 D2 D2 | E/[I:staff +1]B,/A,/G,/ D/A,/B,/C/ D,/C/B,/A,/ | %120
 G,/[I:staff -1]F/E/D/ G/E/F/G/ A,/G/F/E/ | F2 E4- | E/G/^F/E/ A/F/G/A/ B,/A/G/F/ | G2 ^F4- | %124
 F2 A2 c2 | B2 cG M^d2 | e2 ^c2 ^A2 | B z z2 z2 | x6 | z4 A,/C/B,/A,/ | %130
[I:staff +1] G,/B,/G,/A,/ B,/G,/A,/B,/ E,/G,/^F,/E,/ | ^D,/^F,/D,/E,/ F,/D,/E,/F,/[I:staff -1] z2 | %132
[I:staff +1] E,/G,/^F,/E,/ B,/F,/G,/A,/ B,,/A,/G,/F,/ | G,/A,/G,/^F,/ E,/B,/C/D/ E/D/C/B,/ | %134
 C/B,/A,/B,/ C/B,/A,/G,/ ^F,/A,/G,/F,/ | B,/A,/G,/A,/ B,/A,/G,/^F,/ E,/G,/F,/E,/ | %136
 A,/G,/^F,/G,/ A,/G,/F,/E,/ ^D,/F,/E,/D,/ | E,/B,,/E,/G,/ B,/E,/G,/B,/ E/D/E/B,/ | %138
 C/E,/A,/C/[I:staff -1] E/A,/C/E/ A/G/A/E/ | F/A,/D/F/ A/D/F/A/ d/c/B/A/ | ^G2 z2 =G2- | %141
 G/E/F/G/[I:staff +1] A,[I:staff -1]G ^CG | ^F2 z2 =F2- | %143
 F/D/E/F/[I:staff +1] G,[I:staff -1]F B,F | E/F/E/D/ C z z/ A,/B,/C/ | %145
 D/E/D/C/ B, z z/ ^G,/A,/B,/ | C/D/E/F/[I:staff +1] MG,3 G, | A,/C/B,/A,/ E/B,/C/D/ E,/D/C/B,/ | %148
 C2 B,3 E- | E/F/E/D/ C/D/C/B,/ A,/B,/C/A,/ | D/E/F/E/ D/C/B,/A,/ G,/F/E/D/ | %151
 C/D/E/D/ C/B,/A,/G,/ F,/E/D/C/ | B,/C/D/C/ B,/A,/^G,/^F,/ E,/D/C/B,/ | %153
 C2[I:staff -1] z[I:staff +1] A,CA, | %154
[I:staff -1] E/[I:staff +1]B,,/E,/G,/ B,/E,/G,/B,/[I:staff -1] E/D/E/B,/ | ^C6- | %156
 C/B,/^C/A,/ D2- D>D- | D6- | D/C/D/_B,/ _E2- E>=E- | E6- | E/D/E/C/ F2- F>^F- | F6- | %162
 F/E/^F/D/ G2- G>G- | Gc ^F2 z2 | z G ^C2 z2 | z/ D/C/_B,/ A,2- A,/C/B,/A,/ | _B,2 A,2 A,2 | %167
 _B,/[I:staff +1]F,/E,/D,/ A,/E,/F,/G,/ A,,/G,/F,/E,/ | %168
 D,/[I:staff -1]C/B,/A,/ D/B,/C/D/[I:staff +1] E,/[I:staff -1]D/C/B,/ | C2[I:staff +1] B,4- | %170
 B,/[I:staff -1]D/^C/B,/ E/C/D/E/[I:staff +1] ^F,/[I:staff -1]E/D/C/ | D2 ^C4- | %172
 C/^F/E/D/ G/E/F/G/ ^C/E/D/C/ |[I:staff +1] B,2 ^A,2[I:staff -1] z2 | %174
[I:staff +1] B,/[I:staff -1]B/A/G/ c/A/B/c/ ^F/A/G/F/ | E2 ^D2 z2 | E/e/d/c/ f/d/e/f/ B/d/c/B/ | %177
 A2 ^G2 z2 | AG ^FE ^D2 | B,2 D2 F2 | E2 FD M^G2 | A2 ^F2 ^D2 | E z z2 z2 | z6 | %184
 z4[I:staff +1] D,/F,/E,/D,/ | C,/E,/C,/D,/ E,/C,/D,/E,/ A,,/C,/B,,/A,,/ | %186
 ^G,,/B,,/G,,/A,,/ B,,/G,,/A,,/B,,/[I:staff -1] z2 | z2[I:staff +1] [E,A,]2[I:staff -1] z2 | %188
[I:staff +1] A,2[I:staff -1] z2 z2 |[I:staff +1] [B,,E,]2[I:staff -1] z2 z2 | %190
[I:staff +1] E,2[I:staff -1] z2 z2 |[I:staff +1] B,,2[I:staff -1] z2 z2 | x6 | %193
[I:staff +1] A,,2[I:staff -1] z2 z2 |[I:staff +1] [^F,,A,,^D,]2[I:staff -1] z2 z2 | %195
[I:staff +1] [^G,,B,,E,]2[I:staff -1] z2 z2 |[I:staff +1] [A,,C,E,]2[I:staff -1] z2 z2 | %197
[I:staff +1] [^F,,A,,^D,]2[I:staff -1] z2 z2 |[I:staff +1] [^G,,B,,E,]2[I:staff -1] z2 z2 | %199
[I:staff +1] [A,,C,E,]2[I:staff -1] z2 z2 |[I:staff +1] [^F,,A,,^D,]2[I:staff -1] z2 z2 | x6 | %202
[I:staff +1] [E,A,]2[I:staff -1] z2 z2 | x6 | x6 | x6 | x6 | z [CE] [B,D]4 | [^CE]2 z2 z2 |] %209
V:4
 x8 | x8 | x8 | x8 | x8 | x8 | x8 | x8 | x8 | x8 | x8 |[M:3/4] x6 | x6 | x6 | x6 | x6 | x6 | x6 | %18
 x6 | x6 | x6 | x6 | x6 | x6 | x6 | x6 | x6 | x6 | x6 | x6 | x6 | x6 | x6 | x6 | x6 | x6 | x6 | %37
 x6 | x6 | x6 | x6 | x6 | x6 | x6 | x6 | x6 | x6 | x6 | x6 | x6 | x6 | x6 | x6 | x6 | x6 | x6 | %56
 x6 | x6 | x6 | x6 | x6 | x6 | x6 | x6 | x6 | x6 | x6 | x6 | x6 | x6 | x6 | x6 | x6 | x6 | x6 | %75
 x6 | x6 | x4[K:treble] x2 | x6 | x6 | x2[K:bass] x4 | x6 | x6 | x6 | x6 | x6 | x6 | x6 | x6 | x6 | %90
 x6 | x6 | x6 | x6 | x6 | x6 | x6 | x6 | x6 | x6 | x6 | x6 | x6 | x6 | x6 | x6 | x6 | x6 | x6 | %109
 x6 | x6 | x6 | x6 | x6 | x6 | x6 | x6 | x6 | x6 | x6 | x6 | x6 | x6 | x6 | x6 | x6 | x6 | x6 | %128
 x6 | x6 | x6 | x6 | x6 | x6 | x6 | x6 | x6 | x6 | x6 | x6 | x6 | x6 | x6 | x6 | x6 | x6 | x6 | %147
 x6 | x6 | x6 | x6 | x6 | x6 | x6 | x6 | x6 | x6 | x6 | x6 | x6 | x6 | x6 | x6 | x6 | x6 | x6 | %166
 x6 | x6 | x6 | x6 | x6 | x6 | x6 | x6 | x6 | x6 | x6 | x6 | x6 | x6 | x6 | x6 | x6 | x6 | x6 | %185
 x6 | x6 | x6 | x6 | x6 | x6 | x6 | x6 | x6 | x6 | x6 | x6 | x6 | x6 | x6 | x6 | x6 | x6 | x6 | %204
 x6 | x6 | x6 | E,,6 | A,,2 z2 z2 |] %209

